X:1
T:Joy to the World
T:Joy to the World
T:George F. Handel, Molly Cline
C:George F. Handel, Molly Cline
%%score { 1 | 2 } { 3 | 4 }
L:1/8
M:2/4
K:D
V:1 treble nm="Piano" snm="Pno."
V:2 bass 
V:3 treble nm="Organ" snm="Org."
V:4 bass 
V:1
 !fermata![Fd]2 [Ac]>[GB] | [FA]3 [B,EG] | [DF]2 [CE]2 | D3 [DF]/[CE]/ | D [Fd]2 [GB] | %5
 [FA]>[EG] [DF][B,EG] | [DF]2 [CE]2 | D4 || [Fd]2 [Ac]>[GB] | [FA]3 [B,EG] | [DF]2 [CE]2 | D3 A | %12
 [GB]3 [GB] | [Ec]3 [Gc] | [Fd]4- | [Fd]3 [Fd] | [Fd][Ac] [GB][FA] | [FA]>[EG] [DF][Fd] | %18
 [Fd][Ac] [GB][FA] | [FA]>[EG] [DF][DF] | [DF][DF] [DF][DF]/[EG]/ | [FA]3 [EG]/[DF]/ | %22
 [CE][CE] [CE][CE]/[DF]/ | [EG]3 [DF]/[CE]/ | D [Fd]2 [GB] | [FA]>[EG] [DF][B,EG] | [DF]2 [CE]2 | %27
 !fermata!D4 | z4 | z4 | z4 | z4 | B2 G2 | c2 A2 | d4- | d4 | z4 | z4 | DA df | [ad']4 | z4 | z4 | %42
 z4 | z4 | z4 | z4 | FA ce | !fermata![ad']4 | [Fd]2 [Ac]>[GB] | [FA]3 [B,EG] | [DF]2 [CE]2 | %51
 D3 z | [Bb]2 [Bb]2 | [Gg]2 [Gg]2 | [Ff]4- | [Ff]3 [Fd] | [Fd][Ac] [GB][FA] | [FA]>[EG] [DF][Fd] | %58
 [Fd][Ac] [GB][FA] | [FA]>[EG] [DF][DF] | [DF][DF] [DF][DF]/[EG]/ | [FA]3 [EG]/[DF]/ | %62
 [CE][CE] [CE][CE]/[DF]/ | [EG]3 [DF]/[CE]/ | D [Fd]2 [GB] | [FA]>[EG] [DF][B,EG] | [DF]2 [CE]2 | %67
 !fermata!D4 | [Fd]2 [Ac]>[GB] | [FA]3 [B,EG] | [DF]2 [CE]2 | D3 A | [GB]3 [GB] | [Ec]3 [Gc] | %74
 [Fd]4- | [Fd]3 d | [Fd-]A GF | F>E [Dd][Fd-] | FA GF | F>E [Dd][DF] | [DF][DF] [DF][DF]/[EG]/ | %81
 [FA]3 [EG]/[DF]/ | [CE][CE] [CE][CE]/[DF]/ | [EG]3 [DF]/[CE]/ | D [Fd]2 [GB] | %85
 [FA]>[EG] [DF][B,EG] | [DF]2 [CE]2 | D4 |] %88
V:2
 [D,A,]2 [D,D]>[D,D] | [D,D]3 G,, | [A,,A,]2 [A,,A,]G, | [D,F,]4 | [D,F,] A,2 [D,D] | [D,D]3 G,, | %6
 [A,,A,]2 [A,,A,]G, | [D,F,]4 || [D,A,]2 [D,D]>[D,D] | [D,D]3 G,, | [A,,A,]2 [A,,A,]G, | %11
 [D,F,]3 [F,D] | [G,D]3 [G,D] | A,3 A, | [D,A,]4- | [D,A,]3 z | D,4- | D,4 | D,4- | D,4 | %20
 z z z [D,A,] | [D,A,][D,A,] [D,A,][D,A,] | A,3 A,, | A,,A,, A,,A,, | [D,F,] A,2 [D,D] | %25
 [D,D]3 G,, | [A,,A,]2 [A,,A,]G, | [D,F,]4 | z4 | z4 | z4 | z4 | [B,,,B,,]2 [G,,,G,,]2 | %33
 [C,C]2 [A,,A,]2 | [D,D]4- | [D,D]4 | D,,A,, D,F, | A, D3 | z4 | z4 | D,,A,, D,F, | A,D D,D,, | %42
 A,,,A,, C,E, | A,C A,E, | D,,A,, D,F, | A, D3 | z4 | z4 | [D,A,]2 [D,D]>[D,D] | [D,D]3 G,, | %50
 [A,,A,]2 [A,,A,]G, | [D,F,]3 z | D,4 | A,,4 | D,4- | D,4 | D,4- | D,4 | D,4- | D,4 | z z z z | %61
 z4 | A,3 A,, | A,,A,, A,,A,, | [D,F,] A,2 [D,D] | [D,D]3 G,, | [A,,A,]2 [A,,A,]G, | [D,F,]4 | %68
 [D,A,]2 [D,D]>[D,D] | [D,D]3 G,, | [A,,A,]2 [A,,A,]G, | [D,F,]3 [F,D] | [G,D]3 [G,D] | A,3 A, | %74
 [D,A,]4- | [D,A,]3 z | D,D, D,D, | D,D, D,D, | D,D, D,D, | D,D, D, z | [F,,D,]2 [F,,D,]2 | %81
 [F,,D,]2 [F,,D,]2 | [E,,A,,]2 [E,,A,,]2 | A,,A,, A,,[A,,A,] | [D,F,] A,2 [D,D] | [D,D]3 G,, | %86
 [A,,A,]2 [A,,A,]G, | [D,F,]4 |] %88
V:3
 d2 d2 | d4 | A2 AG | F4 | d3 e | f3 g | a2 A2 | d4 || d2 D2 | D4 | A2 AG | F4 | G3 G | E3 A | %14
 [Fd]4- | [Fd]3 z | z4 | z4 | z4 | z4 | z4 | z4 | z4 | z4 | D3 E | F3 G | A2 A,2 | !fermata!A4 | %28
 [Fd]2 [Ac]>[GB] | [FA]3 [B,EG] | [DF]2 [CE]2 | D3 A | [GB]3 [GB] | [Ec]3 [Gc] | [Fd]4- | %35
 [Fd]3 [Fd] | [Fd][Ac] [GB][FA] | [FA]>[EG] [DF][Fd] | [Fd][Ac] [GB][FA] | [FA]>[EG] [DF][DF] | %40
 [DF][DF] [DF][DF]/[EG]/ | [FA]3 [EG]/[DF]/ | [CE][CE] [CE][CE]/[DF]/ | [EG]3 [DF]/[CE]/ | %44
 D [Fd]2 [GB] | [FA]>[EG] [DF][B,EG] | [DF]2 [CE]2 | !fermata!D4 | F2 A2 | F2 D2 | D2 E2 | F3 A | %52
 [GB]3 [GB] | [Ec]3 [Gc] | [Fd]4- | [Fd]3 z | z4 | z4 | D4- | D4 | z z z A | A2 A2 | A,4 | z4 | %64
 A2 G2 | F2 E2 | A2 e2 | !fermata!f4 | [Fd]2 [Ac]>[GB] | [FA]3 [B,EG] | [DF]2 [CE]2 | D3 A | %72
 [GB]3 [GB] | [Ec]3 [Gc] | [Fd]4- | [Fd]3 d | [D-d]c BA | A>G F[Dd] | [D-d]c BA | A>G [DF][DF] | %80
 FD DD | [DF]3 G | EA, A,A, | A,A, A, z | d3 e | f3 g | a2 a2 | a4 |] %88
V:4
 A,,2 D,>D, | D,4 | A,2 A,,2 | D,4 | D,3 E, | F,3 G, | A,2 A,,2 | D,4 || A,,2 D,>D, | D,4 | %10
 A,2 A,,2 | D,4 | G,4 | A,4 | [A,,D,A,]4- | [A,,D,A,]3 z | D,,4- | D,,4 | [D,,D,]4- | [D,,D,]4 | %20
 z z z [D,A,]- | [D,A,]2 [A,,D,A,]2 | [A,,,A,,]3 [A,,,A,,] | [A,,,A,,]2 [A,,,A,,]2 | D,3 E, | %25
 F,3 G, | A,2 A,,2 | D,4 | [D,A,]2 [D,D]>[D,D] | [D,D]3 G,, | [A,,A,]2 [A,,A,]G, | [D,F,]3 [F,D] | %32
 [G,D]3 [G,D] | A,3 A, | [D,A,]4- | [D,A,]3 z | D,4- | D,4 | D,4- | D,4 | z2 z [D,A,] | %41
 [D,A,][D,A,] [D,A,][D,A,] | A,3 A,, | A,,A,, A,,A,, | [D,F,] A,2 [D,D] | [D,D]3 G,, | %46
 [A,,A,]2 [A,,A,]G, | [D,F,]4 | [D,,D,]4 | [D,,D,]2 A,,2 | D,,2 E,,2 | z3 [F,D] | [G,D]3 [G,D] | %53
 A,3 A, | [D,A,]4- | [D,A,]3 z | [D,,D,]4- | [D,,D,]4 | [D,,D,]4- | [D,,D,]4 | z z z [D,A,] | %61
 [D,A,]2 [D,A,]2 | [A,,,A,,]3 [A,,,A,,] | [A,,,A,,]2 [A,,,A,,]2 | [F,,D,]2 [A,,E,]2 | [D,F,]2 G,2 | %66
 A,2 A,,2 | D,4 | [D,A,]2 [D,D]>[D,D] | [D,D]3 G,, | [A,,A,]2 [A,,A,]G, | [D,F,]3 [F,D] | %72
 [G,D]3 [G,D] | A,3 A, | [D,A,]4- | [D,A,]3 z | [D,,D,]2 [D,,D,]2 | [D,,D,]2 [D,,D,]2 | %78
 [D,,D,]2 [D,,D,]2 | [D,,D,]2 [D,,D,]2 | [D,,D,]2 [D,,A,,]2 | [D,,A,,]2 [D,,A,,]2 | %82
 [A,,C,]2 [A,,C,]2 | [C,E,]4 | D,3 E, | F,E, F,G, | A,^G, A,A,, | [A,,D,]4 |] %88

